assets/svg/1F487.svg

<svg xmlns="http://www.w3.org/2000/svg" viewBox="0 0 64 64" enable-background="new 0 0 64 64"><path fill="#633d19" d="m45.01 32.356c0 11.559-9.377 20.936-20.936 20.936l0 0c-11.559 0-20.94-9.377-20.94-20.936v-11.181c0-11.559 9.381-20.936 20.94-20.936l0 0c11.559 0 20.936 9.377 20.936 20.936v11.181"/><path fill="#fbb042" d="m12.198 63.4l.33-2.936c.745-6.628-1.34-12.302-4.658-12.68-3.315-.368-6.61 4.707-7.352 11.342l-.478 4.274h12.158"/><path fill="#ed307c" d="m12.2 63.4l.328-2.936c.745-6.628-1.34-12.302-4.658-12.68-3.315-.368-6.61 4.707-7.352 11.342l-.444 3.979c.108.09.235.194.357.295h11.769"/><path fill="#fbb042" d="m47.35 63.43l.331-2.936c.746-6.628-1.34-12.302-4.657-12.68-3.312-.368-6.606 4.707-7.352 11.342l-.479 4.273h12.157"/><g fill="#ed307c"><path d="m47.35 63.43l.331-2.936c.746-6.628-1.34-12.302-4.657-12.68-3.312-.368-6.606 4.707-7.352 11.342l-.444 3.979c.109.09.235.194.358.295h11.764"/><path d="m40.06 63.4v-5.248c0-7.876-7.155-14.268-15.983-14.268-8.833 0-15.995 6.392-15.995 14.268v5.248h31.978"/></g><path fill="#fbb042" d="m6.644 28.959c0 7.02 7.798 12.714 17.438 12.714 9.624 0 17.432-5.689 17.432-12.714 0-7.02-7.808-24.337-17.432-24.337-9.64 0-17.438 17.317-17.438 24.337"/><path fill="#ed307c" d="m15.386 49.05c3.581 0 15.11 0 17.381 0 .143 0-.784-7.406-.784-8.419 0-.07-15.963-.128-15.963-.128s-.774 8.547-.634 8.547"/><g fill="#25333a"><path d="m20.703 23.15c0 1.718-1.151 3.114-2.572 3.114-1.417 0-2.558-1.396-2.558-3.114 0-1.728 1.141-3.114 2.558-3.114 1.42 0 2.572 1.386 2.572 3.114"/><path d="m32.902 23.15c0 1.718-1.155 3.114-2.566 3.114-1.422 0-2.576-1.396-2.576-3.114 0-1.728 1.153-3.114 2.576-3.114 1.411 0 2.566 1.386 2.566 3.114"/></g><path fill="#633d19" d="m37.981 19.02c.026-4.376.042-8.73.095-13.186-7.918-7.709-19.258-6.483-27.385 1.365-.084 4.39-.173 8.682-.268 12.993 9.06-1.113 18.343-1.503 27.558-1.172"/><path fill="#919194" d="m49.15 8.56l6.988 21.711c0 0 .852 2.304-2.375 2.859l-10.146-25.559 5.533.989"/><path fill="#888787" d="m47.76 8.745c0 0 8.497 22.18 7.302 24.01 0 0 1.605-.763 1.065-2.443l-6.982-21.709-1.385.147"/><path fill="#fff" d="m47.843 14.903c-.091.552.325 1.081.926 1.188s1.161-.25 1.252-.798c.095-.55-.323-1.083-.926-1.193-.604-.111-1.166.248-1.252.803"/><path d="m47.776 14.895c.046-.269.192-.506.422-.665.249-.181.583-.249.906-.193.639.117 1.073.691.98 1.264-.042.267-.193.504-.42.659-.257.185-.583.253-.908.195-.03-.006-.062-.012-.093-.02-.588-.151-.975-.696-.887-1.24m1.306-.731c-.287-.05-.584.012-.812.17-.195.141-.325.344-.363.579-.083.508.299 1.013.874 1.115.289.052.582-.001.81-.169.201-.143.327-.345.367-.577.076-.482-.271-.964-.795-1.103-.026-.004-.051-.008-.081-.015"/><path fill="#be2130" d="m44.12.22c-3.317-2.07-12.441 5.654.449 9.809l4.579-1.431c0 0-2.248-6.64-5.03-8.378m-1.895 6.935c-1.741-.312-2.937-1.846-2.676-3.434.251-1.585 1.875-2.618 3.604-2.309 1.74.313 2.939 1.846 2.681 3.432-.26 1.588-1.877 2.621-3.609 2.311"/><path fill="#633d19" d="m59.16 16.502c-.528 0-1.059 0-1.587 0-.081 0-.141.03-.213.042-.079.012-.159.016-.239.048-.135.054-.245.131-.344.223-.022.02-.046.024-.066.044-3.829 3.731-8.847 4.583-13.622 2.125-2.567-1.32-2.354-2.483-5.102-2.483-1.123 0-1.541 1.302-.864 2.083 6.196 7.147 16.703 7.147 22.901 0 .677-.78.257-2.082-.864-2.082"/><path fill="#e7e5e5" d="m51.911 9.307l-16.576 15.662c0 0-1.86 1.609.708 3.648l21.19-17.51-5.326-1.8"/><path fill="#919194" d="m50.01 15.498c-.188.524-.806.79-1.385.595-.582-.193-.902-.778-.717-1.304.188-.524.808-.79 1.388-.595.581.197.896.781.714 1.304"/><path fill="#c6c6c6" d="m53.05 10.1c0 0-18.13 15.344-17.96 17.524 0 0-1.039-1.447.242-2.658l16.576-15.662 1.142.796"/><path fill="#be2130" d="m51.911 9.307l3.323 3.46c13.301 2.565 9.02-8.6 5.115-8.382-3.272.182-8.438 4.922-8.438 4.922m4.714-1.692c.536-1.517 2.33-2.284 3.996-1.72 1.672.561 2.59 2.249 2.049 3.761-.532 1.515-2.324 2.285-3.994 1.72-1.669-.562-2.592-2.248-2.051-3.761"/><path fill="#633f1a" d="m34.592 29.462c0 5.79-4.695 10.486-10.486 10.486-5.786 0-10.484-4.696-10.484-10.486"/><path fill="#fff" d="m32.796 30.516c0 2.313-3.97 4.189-8.865 4.189-4.892 0-8.862-1.876-8.862-4.189"/></svg>

<?xml version="1.0" encoding="UTF-8" standalone="no"?>
<!-- Generator: Adobe Illustrator 16.0.0, SVG Export Plug-In . SVG Version: 6.00 Build 0)  -->

<svg
   xmlns:dc="http://purl.org/dc/elements/1.1/"
   xmlns:cc="http://creativecommons.org/ns#"
   xmlns:rdf="http://www.w3.org/1999/02/22-rdf-syntax-ns#"
   xmlns:svg="http://www.w3.org/2000/svg"
   xmlns="http://www.w3.org/2000/svg"
   xmlns:sodipodi="http://sodipodi.sourceforge.net/DTD/sodipodi-0.dtd"
   xmlns:inkscape="http://www.inkscape.org/namespaces/inkscape"
   version="1.1"
   id="Layer_1"
   x="0px"
   y="0px"
   width="64px"
   height="64px"
   viewBox="0 0 64 64"
   enable-background="new 0 0 64 64"
   xml:space="preserve"
   inkscape:version="0.48.5 r10040"
   sodipodi:docname="1F487.svg"
   inkscape:export-filename="D:\TESTINGEMOJI\SVGTEST\1F487.png"
   inkscape:export-xdpi="90"
   inkscape:export-ydpi="90"><metadata
   id="metadata5232"><rdf:RDF><cc:Work
       rdf:about=""><dc:format>image/svg+xml</dc:format><dc:type
         rdf:resource="http://purl.org/dc/dcmitype/StillImage" /><dc:title></dc:title></cc:Work></rdf:RDF></metadata><defs
   id="defs5230" /><sodipodi:namedview
   pagecolor="#ffffff"
   bordercolor="#666666"
   borderopacity="1"
   objecttolerance="10"
   gridtolerance="10"
   guidetolerance="10"
   inkscape:pageopacity="0"
   inkscape:pageshadow="2"
   inkscape:window-width="640"
   inkscape:window-height="480"
   id="namedview5228"
   showgrid="false"
   inkscape:zoom="3.6875"
   inkscape:cx="32"
   inkscape:cy="32"
   inkscape:window-x="267"
   inkscape:window-y="230"
   inkscape:window-maximized="0"
   inkscape:current-layer="Layer_1" />
<g
   id="g5172">
	<path
   fill="#633D19"
   d="M45.012,32.356c0,11.559-9.377,20.936-20.936,20.936l0,0c-11.559,0-20.94-9.377-20.94-20.936V21.175   c0-11.559,9.381-20.936,20.94-20.936l0,0c11.559,0,20.936,9.377,20.936,20.936V32.356z"
   id="path5174" />
	<g
   id="g5176">
		<path
   fill="#FBB042"
   d="M12.198,63.4l0.33-2.936c0.745-6.628-1.34-12.302-4.658-12.68c-3.315-0.368-6.61,4.707-7.352,11.342    L0.04,63.4H12.198z"
   id="path5178" />
		<path
   fill="#ED307C"
   d="M12.2,63.4l0.328-2.936c0.745-6.628-1.34-12.302-4.658-12.68c-3.315-0.368-6.61,4.707-7.352,11.342    l-0.444,3.979c0.108,0.09,0.235,0.194,0.357,0.295H12.2z"
   id="path5180" />
	</g>
	<g
   id="g5182">
		<path
   fill="#FBB042"
   d="M47.351,63.433l0.331-2.936c0.746-6.628-1.34-12.302-4.657-12.68c-3.312-0.368-6.606,4.707-7.352,11.342    l-0.479,4.273H47.351z"
   id="path5184" />
		<path
   fill="#ED307C"
   d="M47.351,63.433l0.331-2.936c0.746-6.628-1.34-12.302-4.657-12.68c-3.312-0.368-6.606,4.707-7.352,11.342    l-0.444,3.979c0.109,0.09,0.235,0.194,0.358,0.295H47.351z"
   id="path5186" />
	</g>
	<path
   fill="#ED307C"
   d="M40.065,63.4v-5.248c0-7.876-7.155-14.268-15.983-14.268c-8.833,0-15.995,6.392-15.995,14.268V63.4H40.065z   "
   id="path5188" />
	<path
   fill="#FBB042"
   d="M6.644,28.959c0,7.024,7.798,12.714,17.438,12.714c9.624,0,17.432-5.689,17.432-12.714   c0-7.02-7.808-24.337-17.432-24.337C14.442,4.622,6.644,21.939,6.644,28.959z"
   id="path5190" />
	<path
   fill="#ED307C"
   d="M15.386,49.049c3.581,0,15.105,0,17.381,0c0.143,0-0.784-7.406-0.784-8.419   c0-0.07-15.963-0.128-15.963-0.128S15.246,49.049,15.386,49.049z"
   id="path5192" />
	<path
   fill="#25333A"
   d="M20.703,23.148c0,1.718-1.151,3.114-2.572,3.114c-1.417,0-2.558-1.396-2.558-3.114   c0-1.728,1.141-3.114,2.558-3.114C19.551,20.034,20.703,21.42,20.703,23.148z"
   id="path5194" />
	<path
   fill="#25333A"
   d="M32.902,23.148c0,1.718-1.155,3.114-2.566,3.114c-1.422,0-2.576-1.396-2.576-3.114   c0-1.728,1.153-3.114,2.576-3.114C31.747,20.034,32.902,21.42,32.902,23.148z"
   id="path5196" />
	<path
   fill="#633D19"
   d="M37.981,19.021c0.026-4.376,0.042-8.73,0.095-13.186C30.158-1.874,18.818-0.648,10.691,7.2   c-0.084,4.39-0.173,8.682-0.268,12.993C19.483,19.08,28.766,18.69,37.981,19.021z"
   id="path5198" />
	<path
   fill="#919194"
   d="M49.152,8.56l6.988,21.711c0,0,0.852,2.304-2.375,2.859L43.619,7.571L49.152,8.56z"
   id="path5200" />
	<path
   fill="#888787"
   d="M47.76,8.745c0,0,8.497,22.177,7.302,24.005c0,0,1.605-0.763,1.065-2.443L49.145,8.598L47.76,8.745z"
   id="path5202" />
	<g
   id="g5204">
		<path
   fill="#FFFFFF"
   d="M47.843,14.903c-0.091,0.552,0.325,1.081,0.926,1.188s1.161-0.25,1.252-0.798    c0.095-0.55-0.323-1.083-0.926-1.193C48.491,13.989,47.929,14.348,47.843,14.903z"
   id="path5206" />
		<path
   d="M47.776,14.895c0.046-0.269,0.192-0.506,0.422-0.665c0.249-0.181,0.583-0.249,0.906-0.193    c0.639,0.117,1.073,0.691,0.98,1.264c-0.042,0.267-0.193,0.504-0.42,0.659c-0.257,0.185-0.583,0.253-0.908,0.195    c-0.03-0.006-0.062-0.012-0.093-0.02C48.075,15.984,47.688,15.439,47.776,14.895z M49.082,14.164    c-0.287-0.05-0.584,0.012-0.812,0.17c-0.195,0.141-0.325,0.344-0.363,0.579c-0.083,0.508,0.299,1.013,0.874,1.115    c0.289,0.052,0.582-0.01,0.81-0.169c0.201-0.143,0.327-0.345,0.367-0.577c0.076-0.482-0.271-0.964-0.795-1.103    C49.137,14.175,49.112,14.171,49.082,14.164z"
   id="path5208" />
	</g>
	<path
   fill="#BE2130"
   d="M44.124,0.22c-3.317-2.07-12.441,5.654,0.449,9.809l4.579-1.431C49.152,8.598,46.904,1.958,44.124,0.22z    M42.229,7.155c-1.741-0.312-2.937-1.846-2.676-3.434c0.251-1.585,1.875-2.618,3.604-2.309c1.74,0.313,2.939,1.846,2.681,3.432   C45.578,6.432,43.961,7.465,42.229,7.155z"
   id="path5210" />
	<path
   fill="#633D19"
   d="M59.156,16.502c-0.528,0-1.059,0-1.587,0c-0.081,0-0.141,0.03-0.213,0.042   c-0.079,0.012-0.159,0.016-0.239,0.048c-0.135,0.054-0.245,0.131-0.344,0.223c-0.022,0.02-0.046,0.024-0.066,0.044   c-3.829,3.731-8.847,4.583-13.622,2.125c-2.567-1.32-2.354-2.483-5.102-2.483c-1.123,0-1.541,1.302-0.864,2.083   c6.196,7.147,16.703,7.147,22.901,0C60.697,17.804,60.277,16.502,59.156,16.502z"
   id="path5212" />
	<path
   fill="#E7E5E5"
   d="M51.911,9.307L35.335,24.969c0,0-1.86,1.609,0.708,3.648l21.194-17.51L51.911,9.307z"
   id="path5214" />
	<path
   fill="#919194"
   d="M50.011,15.498c-0.188,0.524-0.806,0.79-1.385,0.595c-0.582-0.193-0.902-0.778-0.717-1.304   c0.188-0.524,0.808-0.79,1.388-0.595C49.878,14.391,50.193,14.975,50.011,15.498z"
   id="path5216" />
	<path
   fill="#C6C6C6"
   d="M53.053,10.103c0,0-18.131,15.344-17.96,17.524c0,0-1.039-1.447,0.242-2.658L51.911,9.307L53.053,10.103z"
   id="path5218" />
	<path
   fill="#BE2130"
   d="M51.911,9.307l3.323,3.46c13.301,2.565,9.021-8.6,5.115-8.382C57.077,4.567,51.911,9.307,51.911,9.307z    M56.625,7.615c0.536-1.517,2.33-2.284,3.996-1.72c1.672,0.561,2.59,2.249,2.049,3.761c-0.532,1.515-2.324,2.285-3.994,1.72   C57.007,10.814,56.084,9.128,56.625,7.615z"
   id="path5220" />
	<g
   id="g5222">
		<path
   fill="#633F1A"
   d="M34.592,29.462c0,5.79-4.695,10.486-10.486,10.486c-5.786,0-10.484-4.696-10.484-10.486"
   id="path5224" />
		<path
   fill="#FFFFFF"
   d="M32.796,30.516c0,2.313-3.97,4.189-8.865,4.189c-4.892,0-8.862-1.876-8.862-4.189"
   id="path5226" />
	</g>
</g>
</svg>
